images/16758407.svg

<?xml version="1.0" encoding="UTF-8"?>
<svg xmlns="http://www.w3.org/2000/svg" xmlns:xlink="http://www.w3.org/1999/xlink" width="300pt" height="300pt" viewBox="0 0 300 300" version="1.1">
<defs>
<g>
<symbol overflow="visible" id="glyph0-0">
<path style="stroke:none;" d="M 0.453125 1.59375 L 0.453125 -6.34375 L 4.953125 -6.34375 L 4.953125 1.59375 Z M 0.953125 1.09375 L 4.453125 1.09375 L 4.453125 -5.84375 L 0.953125 -5.84375 Z M 0.953125 1.09375 "/>
</symbol>
<symbol overflow="visible" id="glyph0-1">
<path style="stroke:none;" d="M 0.890625 -6.5625 L 2.078125 -6.5625 L 4.984375 -1.078125 L 4.984375 -6.5625 L 5.84375 -6.5625 L 5.84375 0 L 4.65625 0 L 1.75 -5.484375 L 1.75 0 L 0.890625 0 Z M 0.890625 -6.5625 "/>
</symbol>
<symbol overflow="visible" id="glyph0-2">
<path style="stroke:none;" d="M 3.546875 -5.953125 C 2.898438 -5.953125 2.382812 -5.710938 2 -5.234375 C 1.625 -4.753906 1.4375 -4.101562 1.4375 -3.28125 C 1.4375 -2.445312 1.625 -1.789062 2 -1.3125 C 2.382812 -0.832031 2.898438 -0.59375 3.546875 -0.59375 C 4.191406 -0.59375 4.703125 -0.832031 5.078125 -1.3125 C 5.453125 -1.789062 5.640625 -2.445312 5.640625 -3.28125 C 5.640625 -4.101562 5.453125 -4.753906 5.078125 -5.234375 C 4.703125 -5.710938 4.191406 -5.953125 3.546875 -5.953125 Z M 3.546875 -6.6875 C 4.460938 -6.6875 5.195312 -6.375 5.75 -5.75 C 6.300781 -5.132812 6.578125 -4.3125 6.578125 -3.28125 C 6.578125 -2.238281 6.300781 -1.410156 5.75 -0.796875 C 5.195312 -0.179688 4.460938 0.125 3.546875 0.125 C 2.617188 0.125 1.878906 -0.179688 1.328125 -0.796875 C 0.773438 -1.410156 0.5 -2.238281 0.5 -3.28125 C 0.5 -4.3125 0.773438 -5.132812 1.328125 -5.75 C 1.878906 -6.375 2.617188 -6.6875 3.546875 -6.6875 Z M 3.546875 -6.6875 "/>
</symbol>
</g>
</defs>
<g id="surface49001">
<rect x="0" y="0" width="300" height="300" style="fill:rgb(100%,100%,100%);fill-opacity:1;stroke:none;"/>
<path style="fill:none;stroke-width:1.2;stroke-linecap:butt;stroke-linejoin:miter;stroke:rgb(0%,0%,0%);stroke-opacity:1;stroke-miterlimit:10;" d="M 238.15625 105.15625 L 237.980469 120.609375 "/>
<path style="fill:none;stroke-width:1.2;stroke-linecap:butt;stroke-linejoin:miter;stroke:rgb(0%,0%,0%);stroke-opacity:1;stroke-miterlimit:10;" d="M 237.980469 120.609375 L 224.503906 128.183594 "/>
<path style="fill:none;stroke-width:1.2;stroke-linecap:butt;stroke-linejoin:miter;stroke:rgb(0%,0%,0%);stroke-opacity:1;stroke-miterlimit:10;" d="M 238.414062 124.539062 L 227.632812 130.597656 "/>
<path style="fill:none;stroke-width:1.2;stroke-linecap:butt;stroke-linejoin:miter;stroke:rgb(0%,0%,0%);stroke-opacity:1;stroke-miterlimit:10;" d="M 251.273438 128.492188 L 237.980469 120.609375 "/>
<path style="fill:none;stroke-width:1.2;stroke-linecap:butt;stroke-linejoin:miter;stroke:rgb(0%,0%,0%);stroke-opacity:1;stroke-miterlimit:10;" d="M 224.503906 128.183594 L 224.324219 143.640625 "/>
<path style="fill:none;stroke-width:1.2;stroke-linecap:butt;stroke-linejoin:miter;stroke:rgb(0%,0%,0%);stroke-opacity:1;stroke-miterlimit:10;" d="M 224.324219 143.640625 L 237.621094 151.523438 "/>
<path style="fill:none;stroke-width:1.2;stroke-linecap:butt;stroke-linejoin:miter;stroke:rgb(0%,0%,0%);stroke-opacity:1;stroke-miterlimit:10;" d="M 223.800781 147.558594 L 234.4375 153.863281 "/>
<path style="fill:none;stroke-width:1.2;stroke-linecap:butt;stroke-linejoin:miter;stroke:rgb(0%,0%,100%);stroke-opacity:1;stroke-miterlimit:10;" d="M 209.871094 149.121094 L 217.097656 146.378906 "/>
<path style="fill:none;stroke-width:1.2;stroke-linecap:butt;stroke-linejoin:miter;stroke:rgb(0%,0%,0%);stroke-opacity:1;stroke-miterlimit:10;" d="M 217.097656 146.378906 L 224.324219 143.640625 "/>
<path style="fill:none;stroke-width:1.2;stroke-linecap:butt;stroke-linejoin:miter;stroke:rgb(0%,0%,0%);stroke-opacity:1;stroke-miterlimit:10;" d="M 237.621094 151.523438 L 239.75 166.832031 "/>
<path style="fill:none;stroke-width:1.2;stroke-linecap:butt;stroke-linejoin:miter;stroke:rgb(0%,0%,0%);stroke-opacity:1;stroke-miterlimit:10;" d="M 237.621094 151.523438 L 244.359375 147.738281 "/>
<path style="fill:none;stroke-width:1.2;stroke-linecap:butt;stroke-linejoin:miter;stroke:rgb(0%,0%,100%);stroke-opacity:1;stroke-miterlimit:10;" d="M 244.359375 147.738281 L 251.097656 143.949219 "/>
<path style="fill:none;stroke-width:1.2;stroke-linecap:butt;stroke-linejoin:miter;stroke:rgb(0%,0%,0%);stroke-opacity:1;stroke-miterlimit:10;" d="M 239.75 166.832031 L 229.105469 178.042969 "/>
<path style="fill:none;stroke-width:1.2;stroke-linecap:butt;stroke-linejoin:miter;stroke:rgb(0%,0%,0%);stroke-opacity:1;stroke-miterlimit:10;" d="M 229.105469 178.042969 L 213.703125 176.710938 "/>
<path style="fill:none;stroke-width:1.2;stroke-linecap:butt;stroke-linejoin:miter;stroke:rgb(0%,0%,0%);stroke-opacity:1;stroke-miterlimit:10;" d="M 213.703125 176.710938 L 205.144531 163.839844 "/>
<path style="fill:none;stroke-width:1.2;stroke-linecap:butt;stroke-linejoin:miter;stroke:rgb(0%,0%,0%);stroke-opacity:1;stroke-miterlimit:10;" d="M 205.144531 163.839844 L 207.507812 156.480469 "/>
<path style="fill:none;stroke-width:1.2;stroke-linecap:butt;stroke-linejoin:miter;stroke:rgb(0%,0%,100%);stroke-opacity:1;stroke-miterlimit:10;" d="M 207.507812 156.480469 L 209.871094 149.121094 "/>
<path style="fill:none;stroke-width:1.2;stroke-linecap:butt;stroke-linejoin:miter;stroke:rgb(0%,0%,100%);stroke-opacity:1;stroke-miterlimit:10;" d="M 209.871094 149.121094 L 204.269531 143.800781 "/>
<path style="fill:none;stroke-width:1.2;stroke-linecap:butt;stroke-linejoin:miter;stroke:rgb(0%,0%,0%);stroke-opacity:1;stroke-miterlimit:10;" d="M 204.269531 143.800781 L 198.664062 138.476562 "/>
<path style=" stroke:none;fill-rule:nonzero;fill:rgb(100%,100%,100%);fill-opacity:1;" d="M 206.871094 143.621094 L 213.871094 143.621094 L 213.871094 154.621094 L 206.871094 154.621094 Z M 206.871094 143.621094 "/>
<g style="fill:rgb(0%,0%,100%);fill-opacity:1;">
  <use xlink:href="#glyph0-1" x="206.871094" y="152.28418"/>
</g>
<path style="fill:none;stroke-width:1.2;stroke-linecap:butt;stroke-linejoin:miter;stroke:rgb(0%,0%,0%);stroke-opacity:1;stroke-miterlimit:10;" d="M 198.664062 138.476562 L 183.839844 142.863281 "/>
<path style="fill:none;stroke-width:1.2;stroke-linecap:butt;stroke-linejoin:miter;stroke:rgb(0%,0%,0%);stroke-opacity:1;stroke-miterlimit:10;" d="M 183.839844 142.863281 L 172.632812 132.21875 "/>
<path style="fill:none;stroke-width:1.2;stroke-linecap:butt;stroke-linejoin:miter;stroke:rgb(0%,0%,0%);stroke-opacity:1;stroke-miterlimit:10;" d="M 172.632812 132.21875 L 165.222656 134.410156 "/>
<path style="fill:none;stroke-width:1.2;stroke-linecap:butt;stroke-linejoin:miter;stroke:rgb(0%,0%,100%);stroke-opacity:1;stroke-miterlimit:10;" d="M 165.222656 134.410156 L 157.808594 136.601562 "/>
<path style="fill:none;stroke-width:1.2;stroke-linecap:butt;stroke-linejoin:miter;stroke:rgb(0%,0%,0%);stroke-opacity:1;stroke-miterlimit:10;" d="M 170.117188 129.167969 L 164.1875 130.921875 "/>
<path style="fill:none;stroke-width:1.2;stroke-linecap:butt;stroke-linejoin:miter;stroke:rgb(0%,0%,100%);stroke-opacity:1;stroke-miterlimit:10;" d="M 164.1875 130.921875 L 158.261719 132.675781 "/>
<path style="fill:none;stroke-width:1.2;stroke-linecap:butt;stroke-linejoin:miter;stroke:rgb(0%,0%,0%);stroke-opacity:1;stroke-miterlimit:10;" d="M 172.632812 132.21875 L 176.246094 117.1875 "/>
<path style="fill:none;stroke-width:1.2;stroke-linecap:butt;stroke-linejoin:miter;stroke:rgb(0%,0%,100%);stroke-opacity:1;stroke-miterlimit:10;" d="M 157.808594 136.601562 L 152.207031 131.28125 "/>
<path style="fill:none;stroke-width:1.2;stroke-linecap:butt;stroke-linejoin:miter;stroke:rgb(100%,0%,0%);stroke-opacity:1;stroke-miterlimit:10;" d="M 152.207031 131.28125 L 146.601562 125.960938 "/>
<path style=" stroke:none;fill-rule:nonzero;fill:rgb(100%,100%,100%);fill-opacity:1;" d="M 154.808594 131.101562 L 161.808594 131.101562 L 161.808594 142.101562 L 154.808594 142.101562 Z M 154.808594 131.101562 "/>
<g style="fill:rgb(0%,0%,100%);fill-opacity:1;">
  <use xlink:href="#glyph0-1" x="154.808594" y="139.764648"/>
</g>
<path style="fill:none;stroke-width:1.2;stroke-linecap:butt;stroke-linejoin:miter;stroke:rgb(100%,0%,0%);stroke-opacity:1;stroke-miterlimit:10;" d="M 146.601562 125.960938 L 139.191406 128.152344 "/>
<path style="fill:none;stroke-width:1.2;stroke-linecap:butt;stroke-linejoin:miter;stroke:rgb(0%,0%,0%);stroke-opacity:1;stroke-miterlimit:10;" d="M 139.191406 128.152344 L 131.777344 130.34375 "/>
<path style=" stroke:none;fill-rule:nonzero;fill:rgb(100%,100%,100%);fill-opacity:1;" d="M 142.601562 120.460938 L 150.601562 120.460938 L 150.601562 131.460938 L 142.601562 131.460938 Z M 142.601562 120.460938 "/>
<g style="fill:rgb(100%,0%,0%);fill-opacity:1;">
  <use xlink:href="#glyph0-2" x="142.601562" y="129.124023"/>
</g>
<path style="fill:none;stroke-width:1.2;stroke-linecap:butt;stroke-linejoin:miter;stroke:rgb(0%,0%,0%);stroke-opacity:1;stroke-miterlimit:10;" d="M 131.777344 130.34375 L 120.570312 119.699219 "/>
<path style=" stroke:none;fill-rule:nonzero;fill:rgb(0%,0%,0%);fill-opacity:1;" d="M 105.746094 124.085938 L 121.34375 122.316406 L 119.796875 117.085938 Z M 105.746094 124.085938 "/>
<path style="fill:none;stroke-width:1.2;stroke-linecap:butt;stroke-linejoin:miter;stroke:rgb(0%,0%,0%);stroke-opacity:1;stroke-miterlimit:10;" d="M 105.746094 124.085938 L 94.539062 113.441406 "/>
<path style="fill:none;stroke-width:1.2;stroke-linecap:butt;stroke-linejoin:miter;stroke:rgb(100%,0%,0%);stroke-opacity:1;stroke-miterlimit:10;" d="M 102.132812 139.113281 L 103.941406 131.601562 "/>
<path style="fill:none;stroke-width:1.2;stroke-linecap:butt;stroke-linejoin:miter;stroke:rgb(0%,0%,0%);stroke-opacity:1;stroke-miterlimit:10;" d="M 103.941406 131.601562 L 105.746094 124.085938 "/>
<path style="fill:none;stroke-width:1.2;stroke-linecap:butt;stroke-linejoin:miter;stroke:rgb(0%,0%,0%);stroke-opacity:1;stroke-miterlimit:10;" d="M 94.539062 113.441406 L 79.71875 117.828125 "/>
<path style="fill:none;stroke-width:1.2;stroke-linecap:butt;stroke-linejoin:miter;stroke:rgb(0%,0%,0%);stroke-opacity:1;stroke-miterlimit:10;" d="M 94.089844 117.367188 L 82.230469 120.875 "/>
<path style="fill:none;stroke-width:1.2;stroke-linecap:butt;stroke-linejoin:miter;stroke:rgb(0%,0%,0%);stroke-opacity:1;stroke-miterlimit:10;" d="M 79.71875 117.828125 L 76.101562 132.855469 "/>
<path style="fill:none;stroke-width:1.2;stroke-linecap:butt;stroke-linejoin:miter;stroke:rgb(0%,0%,0%);stroke-opacity:1;stroke-miterlimit:10;" d="M 76.101562 132.855469 L 87.3125 143.5 "/>
<path style=" stroke:none;fill-rule:nonzero;fill:rgb(0%,0%,0%);fill-opacity:1;" d="M 76.101562 132.855469 L 60.507812 134.625 L 62.054688 139.855469 Z M 76.101562 132.855469 "/>
<path style="fill:none;stroke-width:1.2;stroke-linecap:butt;stroke-linejoin:miter;stroke:rgb(0%,0%,0%);stroke-opacity:1;stroke-miterlimit:10;" d="M 87.3125 143.5 L 94.722656 141.308594 "/>
<path style="fill:none;stroke-width:1.2;stroke-linecap:butt;stroke-linejoin:miter;stroke:rgb(100%,0%,0%);stroke-opacity:1;stroke-miterlimit:10;" d="M 94.722656 141.308594 L 102.132812 139.113281 "/>
<path style=" stroke:none;fill-rule:nonzero;fill:rgb(0%,0%,0%);fill-opacity:1;" d="M 87.3125 143.5 L 81.046875 157.890625 L 86.351562 159.167969 Z M 87.3125 143.5 "/>
<path style=" stroke:none;fill-rule:nonzero;fill:rgb(100%,100%,100%);fill-opacity:1;" d="M 98.132812 133.613281 L 106.132812 133.613281 L 106.132812 144.613281 L 98.132812 144.613281 Z M 98.132812 133.613281 "/>
<g style="fill:rgb(100%,0%,0%);fill-opacity:1;">
  <use xlink:href="#glyph0-2" x="98.132812" y="142.276367"/>
</g>
<path style="fill:none;stroke-width:1.2;stroke-linecap:butt;stroke-linejoin:miter;stroke:rgb(0%,0%,0%);stroke-opacity:1;stroke-miterlimit:10;" d="M 83.699219 158.527344 L 89.304688 163.851562 "/>
<path style="fill:none;stroke-width:1.2;stroke-linecap:butt;stroke-linejoin:miter;stroke:rgb(100%,0%,0%);stroke-opacity:1;stroke-miterlimit:10;" d="M 89.304688 163.851562 L 94.90625 169.171875 "/>
<path style="fill:none;stroke-width:1.2;stroke-linecap:butt;stroke-linejoin:miter;stroke:rgb(100%,0%,0%);stroke-opacity:1;stroke-miterlimit:10;" d="M 94.90625 169.171875 L 93.101562 176.6875 "/>
<path style="fill:none;stroke-width:1.2;stroke-linecap:butt;stroke-linejoin:miter;stroke:rgb(0%,0%,0%);stroke-opacity:1;stroke-miterlimit:10;" d="M 93.101562 176.6875 L 91.292969 184.203125 "/>
<path style=" stroke:none;fill-rule:nonzero;fill:rgb(100%,100%,100%);fill-opacity:1;" d="M 90.90625 163.671875 L 98.90625 163.671875 L 98.90625 174.671875 L 90.90625 174.671875 Z M 90.90625 163.671875 "/>
<g style="fill:rgb(100%,0%,0%);fill-opacity:1;">
  <use xlink:href="#glyph0-2" x="90.90625" y="172.334961"/>
</g>
<path style="fill:none;stroke-width:1.2;stroke-linecap:butt;stroke-linejoin:miter;stroke:rgb(0%,0%,0%);stroke-opacity:1;stroke-miterlimit:10;" d="M 90.777344 182.457031 L 83.367188 184.648438 "/>
<path style="fill:none;stroke-width:1.2;stroke-linecap:butt;stroke-linejoin:miter;stroke:rgb(100%,0%,0%);stroke-opacity:1;stroke-miterlimit:10;" d="M 83.367188 184.648438 L 75.957031 186.84375 "/>
<path style="fill:none;stroke-width:1.2;stroke-linecap:butt;stroke-linejoin:miter;stroke:rgb(0%,0%,0%);stroke-opacity:1;stroke-miterlimit:10;" d="M 91.808594 185.945312 L 84.398438 188.136719 "/>
<path style="fill:none;stroke-width:1.2;stroke-linecap:butt;stroke-linejoin:miter;stroke:rgb(100%,0%,0%);stroke-opacity:1;stroke-miterlimit:10;" d="M 84.398438 188.136719 L 76.988281 190.332031 "/>
<path style="fill:none;stroke-width:1.2;stroke-linecap:butt;stroke-linejoin:miter;stroke:rgb(0%,0%,0%);stroke-opacity:1;stroke-miterlimit:10;" d="M 91.292969 184.203125 L 102.503906 194.84375 "/>
<path style=" stroke:none;fill-rule:nonzero;fill:rgb(100%,100%,100%);fill-opacity:1;" d="M 68.472656 183.085938 L 76.472656 183.085938 L 76.472656 194.085938 L 68.472656 194.085938 Z M 68.472656 183.085938 "/>
<g style="fill:rgb(100%,0%,0%);fill-opacity:1;">
  <use xlink:href="#glyph0-2" x="68.472656" y="191.749023"/>
</g>
<path style="fill:none;stroke-width:1.2;stroke-linecap:butt;stroke-linejoin:miter;stroke:rgb(100%,0%,0%);stroke-opacity:1;stroke-miterlimit:10;" d="M 61.28125 137.242188 L 55.675781 131.917969 "/>
<path style="fill:none;stroke-width:1.2;stroke-linecap:butt;stroke-linejoin:miter;stroke:rgb(0%,0%,0%);stroke-opacity:1;stroke-miterlimit:10;" d="M 55.675781 131.917969 L 50.074219 126.597656 "/>
<path style=" stroke:none;fill-rule:nonzero;fill:rgb(100%,100%,100%);fill-opacity:1;" d="M 57.28125 131.742188 L 65.28125 131.742188 L 65.28125 142.742188 L 57.28125 142.742188 Z M 57.28125 131.742188 "/>
<g style="fill:rgb(100%,0%,0%);fill-opacity:1;">
  <use xlink:href="#glyph0-2" x="57.28125" y="140.405273"/>
</g>
<path style="fill:none;stroke-width:1.2;stroke-linecap:butt;stroke-linejoin:miter;stroke:rgb(0%,0%,0%);stroke-opacity:1;stroke-miterlimit:10;" d="M 51.839844 127.023438 L 53.648438 119.507812 "/>
<path style="fill:none;stroke-width:1.2;stroke-linecap:butt;stroke-linejoin:miter;stroke:rgb(100%,0%,0%);stroke-opacity:1;stroke-miterlimit:10;" d="M 53.648438 119.507812 L 55.453125 111.992188 "/>
<path style="fill:none;stroke-width:1.2;stroke-linecap:butt;stroke-linejoin:miter;stroke:rgb(0%,0%,0%);stroke-opacity:1;stroke-miterlimit:10;" d="M 48.304688 126.171875 L 50.109375 118.65625 "/>
<path style="fill:none;stroke-width:1.2;stroke-linecap:butt;stroke-linejoin:miter;stroke:rgb(100%,0%,0%);stroke-opacity:1;stroke-miterlimit:10;" d="M 50.109375 118.65625 L 51.917969 111.144531 "/>
<path style="fill:none;stroke-width:1.2;stroke-linecap:butt;stroke-linejoin:miter;stroke:rgb(0%,0%,0%);stroke-opacity:1;stroke-miterlimit:10;" d="M 50.074219 126.597656 L 35.25 130.980469 "/>
<path style=" stroke:none;fill-rule:nonzero;fill:rgb(100%,100%,100%);fill-opacity:1;" d="M 49.6875 106.066406 L 57.6875 106.066406 L 57.6875 117.066406 L 49.6875 117.066406 Z M 49.6875 106.066406 "/>
<g style="fill:rgb(100%,0%,0%);fill-opacity:1;">
  <use xlink:href="#glyph0-2" x="49.6875" y="114.729492"/>
</g>
<path style="fill:none;stroke-width:1.2;stroke-linecap:butt;stroke-linejoin:miter;stroke:rgb(0%,0%,100%);stroke-opacity:1;stroke-miterlimit:10;" d="M 251.097656 143.949219 L 251.1875 136.222656 "/>
<path style="fill:none;stroke-width:1.2;stroke-linecap:butt;stroke-linejoin:miter;stroke:rgb(0%,0%,0%);stroke-opacity:1;stroke-miterlimit:10;" d="M 251.1875 136.222656 L 251.273438 128.492188 "/>
<path style="fill:none;stroke-width:1.2;stroke-linecap:butt;stroke-linejoin:miter;stroke:rgb(0%,0%,100%);stroke-opacity:1;stroke-miterlimit:10;" d="M 247.476562 142.363281 L 247.550781 136.179688 "/>
<path style="fill:none;stroke-width:1.2;stroke-linecap:butt;stroke-linejoin:miter;stroke:rgb(0%,0%,0%);stroke-opacity:1;stroke-miterlimit:10;" d="M 247.550781 136.179688 L 247.621094 129.996094 "/>
<path style=" stroke:none;fill-rule:nonzero;fill:rgb(100%,100%,100%);fill-opacity:1;" d="M 248.097656 138.449219 L 255.097656 138.449219 L 255.097656 149.449219 L 248.097656 149.449219 Z M 248.097656 138.449219 "/>
<g style="fill:rgb(0%,0%,100%);fill-opacity:1;">
  <use xlink:href="#glyph0-1" x="248.097656" y="147.112305"/>
</g>
<path style="fill:none;stroke-width:1.2;stroke-linecap:butt;stroke-linejoin:miter;stroke:rgb(0%,0%,0%);stroke-opacity:1;stroke-miterlimit:10;" d="M 251.273438 128.492188 L 264.75 120.921875 "/>
</g>
</svg>

<svg xmlns="http://www.w3.org/2000/svg" xmlns:xlink="http://www.w3.org/1999/xlink" width="300pt" height="300pt" viewBox="0 0 300 300"><defs><symbol overflow="visible"><path d="M.453 1.594v-7.938h4.5v7.938zm.5-.5h3.5v-6.938h-3.5zm0 0"/></symbol><symbol overflow="visible" id="a"><path d="M.89-6.563H2.08l2.906 5.485v-5.484h.86V0H4.656L1.75-5.484V0H.89zm0 0"/></symbol><symbol overflow="visible" id="b"><path d="M3.547-5.953c-.65 0-1.164.242-1.547.72-.375.48-.563 1.13-.563 1.952 0 .835.188 1.49.563 1.967.383.48.898.72 1.547.72.644 0 1.156-.24 1.53-.72.376-.476.564-1.132.564-1.968 0-.822-.187-1.474-.562-1.954-.375-.477-.887-.72-1.53-.72zm0-.734c.914 0 1.648.312 2.203.937.55.617.828 1.438.828 2.47 0 1.042-.277 1.87-.828 2.483-.555.617-1.29.922-2.203.922-.93 0-1.668-.305-2.22-.922C.774-1.41.5-2.237.5-3.28c0-1.033.273-1.853.828-2.47.55-.625 1.29-.938 2.22-.938zm0 0"/></symbol></defs><g><path fill="#fff" d="M0 0h300v300H0z"/><path d="M238.156 105.156l-.176 15.453M237.98 120.61l-13.476 7.574M238.414 124.54l-10.78 6.058M251.273 128.492l-13.293-7.883M224.504 128.184l-.18 15.457M224.324 143.64l13.297 7.883M223.8 147.56l10.637 6.303" stroke-width="1.2" stroke="#000" stroke-miterlimit="10" fill="none"/><path d="M209.87 149.12l7.228-2.74" stroke-width="1.2" stroke="#00f" stroke-miterlimit="10" fill="none"/><path d="M217.098 146.38l7.226-2.74M237.62 151.523l2.13 15.31M237.62 151.523l6.74-3.785" stroke-width="1.2" stroke="#000" stroke-miterlimit="10" fill="none"/><path d="M244.36 147.738l6.738-3.79" stroke-width="1.2" stroke="#00f" stroke-miterlimit="10" fill="none"/><path d="M239.75 166.832l-10.645 11.21M229.105 178.043l-15.402-1.332M213.703 176.71l-8.558-12.87M205.145 163.84l2.363-7.36" stroke-width="1.2" stroke="#000" stroke-miterlimit="10" fill="none"/><path d="M207.508 156.48l2.363-7.36M209.87 149.12l-5.6-5.32" stroke-width="1.2" stroke="#00f" stroke-miterlimit="10" fill="none"/><path d="M204.27 143.8l-5.606-5.323" stroke-width="1.2" stroke="#000" stroke-miterlimit="10" fill="none"/><path d="M206.87 143.62h7v11h-7zm0 0" fill="#fff"/><use xlink:href="#a" x="206.871" y="152.284" fill="#00f"/><path d="M198.664 138.477l-14.824 4.386M183.84 142.863l-11.207-10.644M172.633 132.22l-7.41 2.19" stroke-width="1.2" stroke="#000" stroke-miterlimit="10" fill="none"/><path d="M165.223 134.41l-7.414 2.192" stroke-width="1.2" stroke="#00f" stroke-miterlimit="10" fill="none"/><path d="M170.117 129.168l-5.93 1.754" stroke-width="1.2" stroke="#000" stroke-miterlimit="10" fill="none"/><path d="M164.188 130.922l-5.926 1.754" stroke-width="1.2" stroke="#00f" stroke-miterlimit="10" fill="none"/><path d="M172.633 132.22l3.613-15.032" stroke-width="1.2" stroke="#000" stroke-miterlimit="10" fill="none"/><path d="M157.81 136.602l-5.603-5.32" stroke-width="1.2" stroke="#00f" stroke-miterlimit="10" fill="none"/><path d="M152.207 131.28l-5.605-5.32" stroke-width="1.2" stroke="#f00" stroke-miterlimit="10" fill="none"/><path d="M154.81 131.102h7v11h-7zm0 0" fill="#fff"/><use xlink:href="#a" x="154.809" y="139.765" fill="#00f"/><path d="M146.602 125.96l-7.41 2.192" stroke-width="1.2" stroke="#f00" stroke-miterlimit="10" fill="none"/><path d="M139.19 128.152l-7.413 2.192" stroke-width="1.2" stroke="#000" stroke-miterlimit="10" fill="none"/><path d="M142.602 120.46h8v11h-8zm0 0" fill="#fff"/><use xlink:href="#b" x="142.602" y="129.124" fill="#f00"/><path d="M131.777 130.344L120.57 119.7" stroke-width="1.2" stroke="#000" stroke-miterlimit="10" fill="none"/><path d="M105.746 124.086l15.598-1.77-1.547-5.23zm0 0"/><path d="M105.746 124.086L94.54 113.44" stroke-width="1.2" stroke="#000" stroke-miterlimit="10" fill="none"/><path d="M102.133 139.113l1.808-7.51" stroke-width="1.2" stroke="#f00" stroke-miterlimit="10" fill="none"/><path d="M103.94 131.602l1.806-7.516M94.54 113.44l-14.82 4.388M94.09 117.367l-11.86 3.508M79.72 117.828L76.1 132.855M76.102 132.855l11.21 10.645" stroke-width="1.2" stroke="#000" stroke-miterlimit="10" fill="none"/><path d="M76.102 132.855l-15.594 1.77 1.547 5.23zm0 0"/><path d="M87.313 143.5l7.41-2.19" stroke-width="1.2" stroke="#000" stroke-miterlimit="10" fill="none"/><path d="M94.723 141.31l7.41-2.197" stroke-width="1.2" stroke="#f00" stroke-miterlimit="10" fill="none"/><path d="M87.313 143.5l-6.266 14.39 5.305 1.278zm0 0"/><path d="M98.133 133.613h8v11h-8zm0 0" fill="#fff"/><use xlink:href="#b" x="98.133" y="142.276" fill="#f00"/><path d="M83.7 158.527l5.605 5.325" stroke-width="1.2" stroke="#000" stroke-miterlimit="10" fill="none"/><path d="M89.305 163.852l5.6 5.32M94.906 169.172l-1.804 7.516" stroke-width="1.2" stroke="#f00" stroke-miterlimit="10" fill="none"/><path d="M93.102 176.688l-1.81 7.515" stroke-width="1.2" stroke="#000" stroke-miterlimit="10" fill="none"/><path d="M90.906 163.672h8v11h-8zm0 0" fill="#fff"/><use xlink:href="#b" x="90.906" y="172.335" fill="#f00"/><path d="M90.777 182.457l-7.41 2.19" stroke-width="1.2" stroke="#000" stroke-miterlimit="10" fill="none"/><path d="M83.367 184.648l-7.41 2.196" stroke-width="1.2" stroke="#f00" stroke-miterlimit="10" fill="none"/><path d="M91.81 185.945l-7.412 2.192" stroke-width="1.2" stroke="#000" stroke-miterlimit="10" fill="none"/><path d="M84.398 188.137l-7.41 2.195" stroke-width="1.2" stroke="#f00" stroke-miterlimit="10" fill="none"/><path d="M91.293 184.203l11.21 10.64" stroke-width="1.2" stroke="#000" stroke-miterlimit="10" fill="none"/><path d="M68.473 183.086h8v11h-8zm0 0" fill="#fff"/><use xlink:href="#b" x="68.473" y="191.749" fill="#f00"/><path d="M61.28 137.242l-5.604-5.324" stroke-width="1.2" stroke="#f00" stroke-miterlimit="10" fill="none"/><path d="M55.676 131.918l-5.602-5.32" stroke-width="1.2" stroke="#000" stroke-miterlimit="10" fill="none"/><path d="M57.28 131.742h8v11h-8zm0 0" fill="#fff"/><use xlink:href="#b" x="57.281" y="140.405" fill="#f00"/><path d="M51.84 127.023l1.808-7.515" stroke-width="1.2" stroke="#000" stroke-miterlimit="10" fill="none"/><path d="M53.648 119.508l1.805-7.516" stroke-width="1.2" stroke="#f00" stroke-miterlimit="10" fill="none"/><path d="M48.305 126.172l1.804-7.516" stroke-width="1.2" stroke="#000" stroke-miterlimit="10" fill="none"/><path d="M50.11 118.656l1.808-7.51" stroke-width="1.2" stroke="#f00" stroke-miterlimit="10" fill="none"/><path d="M50.074 126.598L35.25 130.98" stroke-width="1.2" stroke="#000" stroke-miterlimit="10" fill="none"/><path d="M49.688 106.066h8v11h-8zm0 0" fill="#fff"/><use xlink:href="#b" x="49.688" y="114.729" fill="#f00"/><path d="M251.098 143.95l.09-7.727" stroke-width="1.2" stroke="#00f" stroke-miterlimit="10" fill="none"/><path d="M251.188 136.223l.085-7.73" stroke-width="1.2" stroke="#000" stroke-miterlimit="10" fill="none"/><path d="M247.477 142.363l.074-6.183" stroke-width="1.2" stroke="#00f" stroke-miterlimit="10" fill="none"/><path d="M247.55 136.18l.07-6.184" stroke-width="1.2" stroke="#000" stroke-miterlimit="10" fill="none"/><path d="M248.098 138.45h7v11h-7zm0 0" fill="#fff"/><use xlink:href="#a" x="248.098" y="147.112" fill="#00f"/><path d="M251.273 128.492l13.477-7.57" stroke-width="1.2" stroke="#000" stroke-miterlimit="10" fill="none"/></g></svg>
